X: 1168
T: Deo gratias
C: Anonim
L: 1/4
M: C|
N: Derived from pl-kk--kk-i-7--023_anonim--deo-gratias.krn
%%staves [1 2 3 4]
V: 1 clef=alto
V: 2 clef=tenor
V: 3 clef=tenor
V: 4 clef=bass
K: C
[V:1] E2>D2EFG4 [|] 
[V:2] A,2C2-CDE2- [|] 
[V:3] A,4E,4 [|] 
[V:4] A,,2>B,,2C,A,,C,D, [|] 
[V:1] FEF2E4 [|] 
[V:2] EDB,CD2C4 [|] 
[V:3] G,4A,4 [|] 
[V:4] E,4D,2E,2 [|] 
[V:1] D2E6 [|] 
[V:2] A,2B,2C3 [|] 
[V:3] A,4G,4 [|] 
[V:4] F,4E,3D, [|] 
[V:1] F2D4 [|] 
[V:2] B,A,4G,2 [|] 
[V:3] A,4B,4 [|] 
[V:4] C,2D,2B,,4 [|] 
[V:1] C2E4F2 [|] 
[V:2] A,B,CDE2DC [|] 
[V:3] C4A,4 [|] 
[V:4] A,,2>B,,2C,2D,2 [|] 
[V:1] G2FED4 [|] 
[V:2] B,A,B,CD2B,2 [|] 
[V:3] G,4G,8 [|] 
[V:4] E,2D,C,B,,4 [|] 
[V:1] C2E2>D2D4 [|] 
[V:2] E2C4D2 [|] 
[V:3] A,4- [|] 
[V:4] A,,2A,2F,2D,2 [|] 
[V:1] C2D2F2 [|] 
[V:2] E4F2D2 [|] 
[V:3] A,8- [|] 
[V:4] A,4D,4 [|] 
[V:1] E2F2D2E2 [|] 
[V:2] C2D2E2D2 [|] 
[V:3] A,8- [|] 
[V:4] z2D,2D,2C,2 [|] 
[V:1] F4!fermata!E8 |]  
[V:2] D4!fermata!^C8 |]  
[V:3] A,12 |]  
[V:4] D,4!fermata!A,,8 |]  

